src/lib/packages/icons/src/assets/filled/user-code.svg

<svg xmlns="http://www.w3.org/2000/svg" width="24" height="24" fill="none"><path fill="currentColor" d="M6.009 6.5c0-2.206 1.794-4 4-4s4 1.794 4 4-1.794 4-4 4-4-1.794-4-4Zm8.901 8.91c.31-.32.71-.53 1.14-.62.04 0 .08-.01.12-.02.11-.05.18-.15.18-.28a.36.36 0 0 0-.02-.11.36.36 0 0 0-.07-.1c-.87-1.04-2.24-1.78-4.26-1.78H8c-4.06 0-5.5 2.97-5.5 5.52 0 2.28 1.21 3.48 3.5 3.48h6.11a.3.3 0 0 0 .3-.3c0-.105-.09-.21-.1-.22-.37-.41-.56-.93-.56-1.48 0-.6.23-1.17.66-1.59l2.5-2.5Zm7.623 3.56-2.5-2.5a.75.75 0 1 0-1.061 1.061l1.97 1.97-1.97 1.97a.75.75 0 0 0 1.06 1.061l2.5-2.5a.75.75 0 0 0 .001-1.062Zm-5.5-2.5a.75.75 0 0 0-1.061 0l-2.5 2.5a.75.75 0 0 0 0 1.061l2.5 2.5a.748.748 0 0 0 1.06 0 .75.75 0 0 0 0-1.061l-1.97-1.97 1.97-1.97a.748.748 0 0 0 .001-1.06Z"/></svg>

<svg width="24" height="24" viewBox="0 0 24 24" fill="none" xmlns="http://www.w3.org/2000/svg">
<path d="M6.00903 6.5C6.00903 4.294 7.80303 2.5 10.009 2.5C12.215 2.5 14.009 4.294 14.009 6.5C14.009 8.706 12.215 10.5 10.009 10.5C7.80303 10.5 6.00903 8.706 6.00903 6.5ZM14.91 15.41C15.22 15.09 15.62 14.88 16.05 14.79C16.09 14.79 16.13 14.78 16.17 14.77C16.28 14.72 16.35 14.62 16.35 14.49C16.35 14.45 16.34 14.41 16.33 14.38C16.31 14.34 16.29 14.31 16.26 14.28C15.39 13.24 14.02 12.5 12 12.5H8C3.94 12.5 2.5 15.47 2.5 18.02C2.5 20.3 3.71 21.5 6 21.5H12.11C12.27 21.5 12.41 21.37 12.41 21.2C12.41 21.095 12.3201 20.99 12.3101 20.98C11.9401 20.57 11.75 20.05 11.75 19.5C11.75 18.9 11.98 18.33 12.41 17.91L14.91 15.41ZM22.533 18.97L20.033 16.47C19.74 16.177 19.265 16.177 18.972 16.47C18.679 16.763 18.679 17.238 18.972 17.531L20.942 19.501L18.972 21.4709C18.679 21.7639 18.679 22.239 18.972 22.532C19.118 22.678 19.31 22.752 19.502 22.752C19.694 22.752 19.886 22.679 20.032 22.532L22.532 20.032C22.826 19.737 22.826 19.263 22.533 18.97ZM17.033 16.47C16.74 16.177 16.265 16.177 15.972 16.47L13.472 18.97C13.179 19.263 13.179 19.738 13.472 20.031L15.972 22.531C16.118 22.677 16.31 22.751 16.502 22.751C16.694 22.751 16.886 22.678 17.032 22.531C17.325 22.238 17.325 21.763 17.032 21.47L15.062 19.5L17.032 17.53C17.326 17.237 17.326 16.763 17.033 16.47Z" fill="currentColor"/>
</svg>
